icons/hand-waving.svg

<svg width="24" height="24" viewBox="0 0 24 24" fill="none" xmlns="http://www.w3.org/2000/svg">
<path d="M14.806 7.96598C14.5549 7.52644 14.4868 7.00575 14.6165 6.51643C14.7462 6.02711 15.0632 5.60846 15.499 5.35097C15.7146 5.22493 15.9532 5.14307 16.2008 5.11016C16.4484 5.07725 16.7 5.09395 16.9411 5.15929C17.1822 5.22463 17.4078 5.3373 17.6049 5.49073C17.802 5.64417 17.9665 5.83529 18.089 6.05298L19.984 9.36697C20.9918 11.1283 21.2642 13.216 20.742 15.177C20.4851 16.1471 20.0408 17.0576 19.434 17.857C18.8294 18.6535 18.0736 19.3229 17.21 19.827C16.3498 20.3298 15.3981 20.6564 14.4104 20.7877C13.4227 20.9191 12.4187 20.8525 11.457 20.592C10.4939 20.3307 9.59221 19.881 8.80401 19.269C8.013 18.6554 7.35042 17.8923 6.85401 17.023L3.25401 10.725C3.00239 10.2847 2.93414 9.76314 3.06401 9.27297C3.19501 8.78297 3.51301 8.36498 3.94801 8.11198C4.16289 7.9864 4.40056 7.90476 4.64725 7.8718C4.89393 7.83884 5.14471 7.85522 5.38501 7.91998C5.87001 8.05098 6.28401 8.37198 6.53501 8.80998L8.24101 11.794" stroke="white" stroke-width="2" stroke-linecap="round" stroke-linejoin="round"/>
<path d="M8.68099 4.9078C8.43005 4.46728 8.36252 3.9457 8.49299 3.4558C8.62299 2.9658 8.93999 2.5488 9.37499 2.2948C9.59007 2.16926 9.82795 2.08772 10.0748 2.05493C10.3217 2.02214 10.5726 2.03875 10.813 2.1038C11.298 2.2338 11.712 2.5548 11.963 2.9938L15.753 9.6238L14.806 7.9658" stroke="white" stroke-width="2" stroke-linecap="round" stroke-linejoin="round"/>
<path d="M8.68101 4.90811L11.145 9.21811L7.92301 3.58211C7.67278 3.14413 7.25931 2.82306 6.77301 2.68911C6.5324 2.62353 6.28113 2.60655 6.03388 2.63918C5.78664 2.6718 5.54837 2.75336 5.33301 2.87911C5.11633 3.00531 4.92676 3.17312 4.77522 3.37289C4.62367 3.57266 4.51315 3.80044 4.45001 4.04311C4.32008 4.5336 4.38833 5.05552 4.64001 5.49611L8.24101 11.7941" stroke="white" stroke-width="2" stroke-linecap="round" stroke-linejoin="round"/>
<path d="M15.754 9.62402C14.8811 10.1346 14.2461 10.9703 13.988 11.948C13.7274 12.9284 13.8632 13.972 14.366 14.853" stroke="white" stroke-width="2" stroke-linecap="round" stroke-linejoin="round"/>
<path d="M16.451 2C17.316 2 18.166 2.23 18.915 2.667C19.6654 3.10521 20.2873 3.73326 20.718 4.488" stroke="white" stroke-width="2" stroke-linecap="round" stroke-linejoin="round"/>
<path d="M7.459 22.0002C6.17182 21.0974 5.10079 19.9205 4.323 18.5542" stroke="white" stroke-width="2" stroke-linecap="round" stroke-linejoin="round"/>
</svg>

<svg
  width="24"
  height="24"
  viewBox="0 0 24 24"
  xmlns="http://www.w3.org/2000/svg"
  fill="none"
  stroke="currentColor"
  stroke-width="2"
  stroke-linecap="round"
  stroke-linejoin="round"
>
  <path d="M14.806 7.966a1.927 1.927 0 0 1 .693-2.615 1.882 1.882 0 0 1 2.59.702l1.895 3.314a7.706 7.706 0 0 1 .758 5.81 7.688 7.688 0 0 1-1.308 2.68 7.606 7.606 0 0 1-2.224 1.97 7.509 7.509 0 0 1-5.753.765 7.549 7.549 0 0 1-2.653-1.323 7.632 7.632 0 0 1-1.95-2.246l-3.6-6.298a1.93 1.93 0 0 1-.19-1.452c.131-.49.449-.908.884-1.161a1.879 1.879 0 0 1 1.437-.192c.485.131.899.452 1.15.89l1.706 2.984" />
  <path d="M8.681 4.908a1.93 1.93 0 0 1-.188-1.452c.13-.49.447-.907.882-1.161a1.879 1.879 0 0 1 1.438-.191c.485.13.899.451 1.15.89l3.79 6.63-.947-1.658" />
  <path d="M8.681 4.908l2.464 4.31-3.222-5.636a1.908 1.908 0 0 0-1.15-.893 1.877 1.877 0 0 0-1.44.19 1.901 1.901 0 0 0-.883 1.164 1.932 1.932 0 0 0 .19 1.453l3.601 6.298" />
  <path d="M15.754 9.624a3.823 3.823 0 0 0-1.766 2.324 3.86 3.86 0 0 0 .378 2.905" />
  <path d="M16.451 2c.865 0 1.715.23 2.464.667a4.95 4.95 0 0 1 1.803 1.821" />
  <path d="M7.459 22a10.636 10.636 0 0 1-3.136-3.446" />
</svg>
